X: 04052
T: LISA'S JIG
C: Bob McQuillen 2 May 79
B: Bob's Note Book 04 #52
R: jig
Z: 2020 John Chambers <jc:trillian.mit.edu>
M: 6/8
L: 1/8
K: Em
|:B2E EFG | ABA F2D | B2E EGB | ded B2A |\
| B2E EFG | ABA F2D | BGE GAG | FED E2 :|
|:e2e dBG | BAG FED | EGB AGA | BdB A2d |\
| ede dBG | BAG FED | EGB AGA | GEE E2 :|
%%begintext align
%% Lisa Schnurr plays banjo
%% with that great Contra Dance
%% Band, Timber Salvage, so
%% this is her tne. I hope you
%% like it, Lisa!
%%endtext

%%sep 1 1 500

%%sep 1 1 500

